static/assets/images/exchanges/wagmi.svg

<svg width="256" height="256" viewBox="0 0 256 256" fill="none" xmlns="http://www.w3.org/2000/svg">
<path d="M255.471 127.382L235.894 116.091C230.338 65.5436 190.214 25.3177 139.685 19.7602L128.485 0.529286C128.044 -0.176429 127.074 -0.176429 126.633 0.529286L115.61 19.7602C64.8158 25.2295 24.5153 65.7203 19.136 116.62L0.529104 127.382C-0.176368 127.823 -0.176368 128.794 0.529104 129.147L19.2242 139.909C24.6917 190.633 64.9921 230.947 115.698 236.416L126.721 255.471C127.162 256.176 128.132 256.176 128.573 255.471L139.596 236.416C190.126 230.947 230.25 190.897 235.894 140.438L255.471 129.059C256.176 128.794 256.176 127.735 255.471 127.382ZM127.515 34.6685C130.69 36.9621 133.953 39.344 137.215 41.6376C137.127 45.3425 137.127 48.9593 137.039 52.6642C130.954 52.6642 124.781 52.6642 118.696 52.7524C118.696 49.0475 118.608 45.3425 118.608 41.7258C121.518 39.344 124.516 37.0504 127.515 34.6685ZM30.8646 128.088C30.8646 120.325 31.7464 112.827 33.5101 105.505C38.4486 90.6849 46.2971 80.2756 51.5879 74.277C50.2652 78.0701 46.2971 90.7731 51.5879 105.329C58.1137 123.501 73.8989 130.823 76.7206 132.146C61.4648 132.058 46.2085 131.881 30.9528 131.793C30.9528 130.558 30.8646 129.323 30.8646 128.088ZM107.585 145.643C105.116 150.671 99.9131 151.818 99.2075 151.994C96.1213 154.641 90.1248 160.551 87.6553 169.99C82.3645 190.28 98.943 206.688 99.7368 207.393C93.8285 206.6 68.6958 202.453 51.5879 180.223C42.3285 168.226 39.2419 155.876 38.0955 148.819C41.2703 151.289 45.8559 154.112 51.9405 155.346C71.1649 159.14 86.4207 142.908 87.6553 141.497C87.5671 140.968 86.6856 135.41 90.5656 131.705C94.4456 128 101.06 128.441 105.028 131.97C109.084 135.586 109.702 141.409 107.585 145.643ZM137.215 218.861C134.393 223.008 129.367 223.184 128.573 223.272C127.779 223.272 121.959 223.448 118.784 218.685C116.58 215.333 116.492 211.01 118.52 207.393C118.608 207.217 119.314 206.511 119.137 205.365C119.049 204.659 118.696 204.218 118.52 203.953V99.5066C124.693 99.5066 130.866 99.5947 137.039 99.5947C137.039 134.263 136.951 168.932 136.951 203.6C136.862 203.6 136.069 204.218 136.069 205.188C136.069 206.246 136.862 206.864 136.951 206.864C139.42 210.745 139.508 215.421 137.215 218.861ZM137.568 87.1563C131.219 87.1563 124.781 87.0682 118.432 87.0682C117.285 86.98 115.61 86.98 113.67 87.1563C103.793 88.3031 97.3558 94.8312 95.6801 96.5071C89.2429 103.211 87.5671 110.886 87.1264 113.974C85.1862 112.21 69.3133 97.4775 70.8123 74.1888C71.9587 56.8105 82.0119 45.5189 87.6553 40.3144C91.5357 54.1642 104.234 64.3968 119.314 64.3968H135.892C151.06 64.3968 163.847 54.1642 167.639 40.1376C170.284 42.5194 183.071 54.5169 184.218 74.4534C185.54 96.9484 170.902 111.592 168.785 113.709C168.433 111.063 167.11 102.682 159.967 95.7134C153.618 89.5381 146.386 88.1268 144.093 87.6859C141.536 87.1563 139.243 87.0681 137.568 87.1563ZM204.5 180.311C202.648 182.781 193.389 194.338 176.634 201.748C168.609 205.276 161.378 206.776 156.351 207.481C159.262 204.747 164.817 198.748 167.551 189.309C168.609 185.781 170.637 178.724 168.432 169.99C165.875 160.022 159.438 154.112 156.88 151.994C151.589 150.671 147.798 146.349 147.356 141.497C147.356 141.144 146.916 135.763 151.06 132.146C154.588 129.059 160.672 127.912 164.817 131.264C167.727 133.646 169.05 137.615 168.344 141.585C169.667 143.085 184.835 159.14 204.059 155.435C210.144 154.288 214.818 151.465 217.904 148.995C216.934 155.435 214.024 167.961 204.5 180.311ZM224.077 132.058C208.733 132.058 193.389 132.058 178.045 131.97C180.778 130.823 196.916 123.501 203.442 105.152C208.556 90.6849 204.588 78.2465 203.266 74.4534C208.292 79.6583 216.669 89.8027 221.431 105.152C221.431 105.152 221.431 105.152 221.431 105.241C223.195 112.65 224.165 120.325 224.165 128.088C224.165 129.411 224.165 130.735 224.077 132.058Z" fill="white"/>
</svg>

<svg xmlns="http://www.w3.org/2000/svg" fill="none" viewBox="0 0 256 256"><path fill="#fff" d="m255.471 127.382-19.577-11.291c-5.556-50.547-45.68-90.773-96.209-96.33L128.485.528a1.075 1.075 0 0 0-1.852 0L115.61 19.76c-50.794 5.47-91.095 45.96-96.474 96.86L.529 127.382c-.705.441-.705 1.412 0 1.765l18.695 10.762c5.468 50.724 45.768 91.038 96.474 96.507l11.023 19.055a1.075 1.075 0 0 0 1.852 0l11.023-19.055c50.53-5.469 90.654-45.519 96.298-95.978l19.577-11.379c.705-.265.705-1.324 0-1.677M127.515 34.668c3.175 2.294 6.438 4.676 9.7 6.97-.088 3.705-.088 7.321-.176 11.026-6.085 0-12.258 0-18.343.088 0-3.705-.088-7.41-.088-11.026 2.91-2.382 5.908-4.676 8.907-7.057m-96.65 93.42c0-7.763.881-15.261 2.645-22.583 4.939-14.82 12.787-25.23 18.078-31.228-1.323 3.793-5.29 16.496 0 31.052 6.526 18.172 22.31 25.494 25.133 26.817-15.256-.088-30.513-.265-45.768-.353 0-1.235-.088-2.47-.088-3.705m76.72 17.555c-2.469 5.028-7.672 6.175-8.377 6.351-3.087 2.647-9.083 8.557-11.553 17.996-5.29 20.29 11.288 36.698 12.082 37.403-5.908-.793-31.041-4.94-48.15-27.17-9.259-11.997-12.345-24.347-13.492-31.404 3.175 2.47 7.76 5.293 13.846 6.527 19.224 3.794 34.48-12.438 35.714-13.849-.088-.529-.97-6.087 2.91-9.792s10.495-3.264 14.463.265c4.056 3.616 4.674 9.439 2.557 13.673m29.63 73.218c-2.822 4.147-7.848 4.323-8.642 4.411-.794 0-6.614.176-9.789-4.587-2.204-3.352-2.292-7.675-.264-11.292.088-.176.794-.882.617-2.028-.088-.706-.441-1.147-.617-1.412V99.507c6.173 0 12.346.088 18.519.088 0 34.668-.088 69.337-.088 104.005-.089 0-.882.618-.882 1.588 0 1.058.793 1.676.882 1.676 2.469 3.881 2.557 8.557.264 11.997m.353-131.705c-6.349 0-12.787-.088-19.136-.088-1.147-.088-2.822-.088-4.762.088-9.877 1.147-16.314 7.675-17.99 9.351-6.437 6.704-8.113 14.379-8.554 17.467-1.94-1.764-17.813-16.496-16.314-39.785 1.147-17.378 11.2-28.67 16.843-33.875 3.88 13.85 16.579 24.083 31.659 24.083h16.578c15.168 0 27.955-10.233 31.747-24.26 2.645 2.382 15.432 14.38 16.579 34.316 1.322 22.495-13.316 37.139-15.433 39.256-.352-2.646-1.675-11.027-8.818-17.996-6.349-6.175-13.581-7.586-15.874-8.027-2.557-.53-4.85-.618-6.525-.53m66.932 93.155c-1.852 2.47-11.111 14.027-27.866 21.437-8.025 3.528-15.256 5.028-20.283 5.733 2.911-2.734 8.466-8.733 11.2-18.172 1.058-3.528 3.086-10.585.881-19.319-2.557-9.968-8.994-15.878-11.552-17.996-5.291-1.323-9.082-5.645-9.524-10.497 0-.353-.44-5.734 3.704-9.351 3.528-3.087 9.612-4.234 13.757-.882 2.91 2.382 4.233 6.351 3.527 10.321 1.323 1.5 16.491 17.555 35.715 13.85 6.085-1.147 10.759-3.97 13.845-6.44-.97 6.44-3.88 18.966-13.404 31.316m19.577-48.253c-15.344 0-30.688 0-46.032-.088 2.733-1.147 18.871-8.469 25.397-26.818 5.114-14.467 1.146-26.906-.176-30.699a77.15 77.15 0 0 1 18.165 30.699v.089c1.764 7.409 2.734 15.084 2.734 22.847 0 1.323 0 2.647-.088 3.97"/></svg>
